X:61
T:Polska efter Skr\"addaren J. Lindberg
R:sl\"angpolska
H:spelad p{\aa} fl\"ojt af Skr\"addaren J. Lindberg, Marsj\"o
A:S\"ormland
B:A.P. Andersson 1880
M:3/4
L:1/16
K:G
g2gb g2gb g2gb|g2fg agfe d4|d2ef gage dedB|dcBc A2G2 G4:|
|:B2BA G2Bc d2cB|A2AG F2AB c2BA|B2BA G2Bc d2cB|
A2AG F2AB c2BA|d2ef gage dedB|dcBc A2G2 G4:|
<end>
<start>
